X: 1
T:Tenpenny Bit
M:6/8
K:Ador
e|"Am"eAA eAA|"G"BAB GBd|"Am"eAA eAA|"G"def gfg|
"Am"eAA eAA|"G"BAB GBd|"Em"edB "G"gBB|"Am"BAA A2:|
B|"Am"A2a aga|"Em"bge "G"dBG|"Am"A2a aga|"Em"bge g2d|
"Am"A2a aga|"Em"bge "G"dBd|"Em"edB gBB|"Am"BAA A2:|
